client/src/assets/images/RemovePassword.svg

<svg xmlns="http://www.w3.org/2000/svg" width="24" height="24" fill="none"><path fill="#000" d="M15 2H9v2H7v4H4v14h16V8h-3V4h-2V2Zm0 2v4H9V4h6Zm-6 6h9v10H6V10h3Zm4 3h-2v4h2v-4Zm5-8V3h6v2h-6Z"/></svg>

<svg width="24" height="24" viewBox="0 0 24 24" fill="none" xmlns="http://www.w3.org/2000/svg">
<path d="M15 2H9V4H7V8H4V22H20V8H17V4H15V2ZM15 4V8H9V4H15ZM9 10H18V20H6V10H9ZM13 13H11V17H13V13Z" fill="black"/>
<path d="M18 5V3H20H22H24V5H22H20H18Z" fill="black"/>
</svg>
